X: 29029
T: Neckbelly
R: reel
M: 4/4
K: Amajor
F3 c AFcF|CFAB cdef|ecBc G3 e|ceBG AFGE|
CFAF cFAF|CFAB cdef|geBG ecBG|1 ceBG AFFE:|2 ceBG AF F2||
|:a2 fe f2 a2-|af fe f3g|af f2 fc c2|cB B2 BAGA|
Fcfe fecA|Fcfe f3g|afge fecB|1 ceBG AF F2:|2 ceBG AFGE||

